images/cost-chart2.svg

<svg width="244" height="150" viewBox="0 0 244 150" fill="none" xmlns="http://www.w3.org/2000/svg">
<path d="M242.566 1.35352H1.01978V148.961H242.566V1.35352Z" fill="white"/>
<path d="M243.232 149.626H0.405273V0.738281H243.232V149.626ZM1.68601 148.346H241.952V2.01826H1.68601V148.346Z" fill="#2667FF"/>
<path d="M45.3333 102.01H31.4502V127.507H45.3333V102.01Z" fill="#2667FF"/>
<path d="M73.0995 90.3379H59.2163V127.509H73.0995V90.3379Z" fill="#2667FF"/>
<path d="M100.917 99.8604H87.0342V127.508H100.917V99.8604Z" fill="#2667FF"/>
<path d="M128.735 80.4053H114.852V127.509H128.735V80.4053Z" fill="#2667FF"/>
<path d="M156.552 67.9609H142.669V127.506H156.552V67.9609Z" fill="#2667FF"/>
<path d="M184.318 50.1973H170.435V127.508H184.318V50.1973Z" fill="#2667FF"/>
<path d="M212.136 22.8564H198.253V127.508H212.136V22.8564Z" fill="#2667FF"/>
<path d="M42.5157 35.2451H31.4502V47.7377H42.5157V35.2451Z" fill="#87BFFF"/>
<path d="M134.421 41.0303H59.5752V44.2558H134.421V41.0303Z" fill="#87BFFF"/>
</svg>

<svg xmlns="http://www.w3.org/2000/svg" width="244" height="150" fill="none"><path fill="#fff" d="M242.566 1.354H1.02V148.96h241.546V1.354Z"/><path fill="#2667FF" d="M243.232 149.626H.405V.738h242.827v148.888Zm-241.546-1.28h240.266V2.018H1.686v146.328Z"/><path fill="#2667FF" d="M45.333 102.01H31.45v25.497h13.883V102.01ZM73.1 90.338H59.216v37.171H73.1V90.338ZM100.917 99.86H87.034v27.648h13.883V99.86ZM128.735 80.405h-13.883v47.104h13.883V80.405ZM156.552 67.96h-13.883v59.546h13.883V67.961ZM184.318 50.197h-13.883v77.311h13.883v-77.31ZM212.136 22.856h-13.883v104.652h13.883V22.856Z"/><path fill="#87BFFF" d="M42.516 35.245H31.45v12.493h11.066V35.245ZM134.421 41.03H59.575v3.226h74.846V41.03Z"/></svg>
